svg/cards_playing_heart_outline.svg

<svg xmlns="http://www.w3.org/2000/svg" viewBox="0 0 24 24"><path d="M17 2H7c-1.1 0-2 .9-2 2v16c0 1.1.9 2 2 2h10c1.1 0 2-.9 2-2V4c0-1.1-.9-2-2-2m0 18H7V4h10zM10.2 9C9 9 8 10 8 11.2c0 1.5 1.4 2.7 3.4 4.6l.6.5.6-.5c2-1.9 3.4-3.1 3.4-4.6C16 9.9 15 9 13.8 9c-.7 0-1.4.3-1.8.8-.4-.5-1.1-.8-1.8-.8"/></svg>

<svg xmlns="http://www.w3.org/2000/svg" id="mdi-cards-playing-heart-outline" viewBox="0 0 24 24"><path d="M17 2H7C5.9 2 5 2.9 5 4V20C5 21.1 5.9 22 7 22H17C18.1 22 19 21.1 19 20V4C19 2.9 18.1 2 17 2M17 20H7V4H17V20M10.2 9C9 9 8 10 8 11.2C8 12.7 9.4 13.9 11.4 15.8L12 16.3L12.6 15.8C14.6 13.9 16 12.7 16 11.2C16 9.9 15 9 13.8 9C13.1 9 12.4 9.3 12 9.8C11.6 9.3 10.9 9 10.2 9Z" /></svg>
